X:1
T:O'Dowd's Pitch
C:Ed Yother
C:c.2016
C:http://edyother.com
K:Gdor
R:Reel
M:C|
BAGB AGFD | CD (3DDD EDCD | FEDG FDCF | DCA,D CA,G,2 |
BAGB AGFA | (3ccc cA GAdA | BAGd cAGB | AGFD CA,G,2 :|
|: BAGd cAGB | AGFA cAFA | BAGd cAGB | AGFD CDFA |
BAGd cAGB | AGFA cAFA | (3BBB Bc BAGA | BAGF DFGA :||

